X:60
T: Wiedersehen an der Bahre
N: Q0056P
O: Mitteleuropa, Deutschland / Frankreich, Lothringen
R: Ballade, Abschied, Enttaeuschung, Tod, Selbstmord
M: 6/4
L: 1/4
K: G
GD2G | _B2AG2=F | G2
=F_B2c | d2=fd_Bc | d2
d=f2d | _edcd2c | _B2
dd2c | c_BAG2=F | G2

@@@ Tune index: 936
